X:1
T:Title
%%score 1 { ( 2 5 ) | ( 3 4 ) }
L:1/8
M:6/8
K:E
V:1 treble nm="Akkordion"
V:2 treble nm="Grand Piano"
V:5 treble 
V:3 bass 
V:4 bass 
V:1
 z3 z2[Q:1/4=90] E | E2 F E2 c | BAF E2 E | F2 E A2 B |[M:5/8] G- G3 z |[M:1/8] E | %6
[M:3/4] E2 F E2 c | BA F E2 F | G2 B c2 B |[M:5/8] E- E3 z |[M:1/8] E |[M:3/4] =D2 E G2 F | %12
 F2 E C2 E | A2 A B2 F |[M:5/8] G3 F2 |[M:1/8] E |[M:3/4] A2 A B2 c | =d2 AA GA | c2 E F2 B | %19
[M:5/8] A-A- A3 |] %20
V:2
 z3 z2 [CE] | [CE]2 [CF] [CE]2 [Cc] | .[=DB]2 [G,DF] [A,CE]2 E | F2 E A2 B |[M:5/8] G- G3 z | %5
[M:1/8] E |[M:3/4] .[A,CE]2 [^B,F] [CE]2 [Cc] | BA [^B,F] [CE]2 [CF] | [B,G]2 [EB] [Dc]2 [DB] | %9
[M:5/8] [G,E]- [G,E]3 z |[M:1/8] z |[M:3/4][K:bass] [E,G,=D]2 [G,E][K:treble] [G,DG]2 [DF] | %12
 [CF]2 [CE] C2 E | [A,CEA]2 [A,CEA] [B,DB]2 [DF] |[M:5/8] [B,=DG]3 F2 |[M:1/8] E | %16
[M:3/4] [CA]2 A B2 c | =d2 AA GA | c2 E F2 B |[M:5/8] [CA]-[CA]- [CA]3 |] %20
V:3
 z3 z2 [A,,E,] | [A,,E,]2 [A,,E,] [A,,E,]2 [A,,E,] | z AA,, A,,2 [A,C] | %3
 [A,C]2 [A,C] [F,CE]2 [F,B,D] |[M:5/8] [E,B,E]- [E,B,E]3 z |[M:1/8] [E,G,=D] | %6
[M:3/4] z E, [A,,D,] [A,,E,]2 [A,,^E,] | [A,,F,]2 [A,,D,] [A,,E,]2 [^A,,E,] | %8
 [B,,E,]2 [B,,G,] [B,,F,]2 [B,,A,] |[M:5/8] E,- E,3 z |[M:1/8] E |[M:3/4] E,,2 E, [E,,E,]2 [E,G,] | %12
 [A,,E,A,]2 [A,,E,A,] [A,,E,A,]2 E, | A,,2 A,, [F,,F,]2 [B,,F,B,] |[M:5/8] z z2 [A,=D]2 | %15
[M:1/8] [E,=D] |[M:3/4] [A,,A,]2 [A,CE] [G,B,E]2 [=G,A,E] | [F,A,=D]2 [F,A,D] [F,B,^D]2 [^E,A,D] | %18
 [E,A,E]2 [E,A,C] [E,A,=D]2 [E,G,D] |[M:5/8] [A,,E,A,]-[A,,E,A,]- [A,,E,A,]3 |] %20
V:4
 x6 | x6 | .[A,,F,]3 z3 | x6 |[M:5/8] x5 |[M:1/8] x |[M:3/4] A,,2 z2 z2 | x6 | x6 |[M:5/8] x5 | %10
[M:1/8] x |[M:3/4] x6 | x6 | x6 |[M:5/8] [E,,E,]-[E,,E,]- [E,,E,]3 |[M:1/8] x |[M:3/4] x6 | x6 | %18
 x6 |[M:5/8] x5 |] %20
V:5
 x6 | x6 | x6 | x6 |[M:5/8] x5 |[M:1/8] x |[M:3/4] x6 | =D2 z2 z2 | x6 |[M:5/8] x5 |[M:1/8] x | %11
[M:3/4][K:bass] x3[K:treble] x3 | x6 | x6 |[M:5/8] x5 |[M:1/8] x |[M:3/4] x6 | x6 | x6 | %19
[M:5/8] x5 |] %20

